X: 8
T: Back to the Hills
N: Dedicated to Tom Fraser
C: J.Scott Skinner
R: air, jig, reel
N: Skinner, SV p.41, Hardie (see fingerings) p.111 [Reverie]
Z: John Chambers <jc:trillian.mit.edu>
M: C
L: 1/4
K: Em
F \
| "Em"E>F GF/E/ | "Am"A>B cB/A/ | "Em"BG {G}FE | "(B)"E2 "B7"{FE}^DB, \
| "Em"E>F GF/E/ | "Am"A>B cB/A/ | "Em"Be "B7"e^d | f2 "Em"e ||
B \
| "Em"e2 B2 | "Am"c3 c | "Em"B[gG] [fF][eE] | "(B)"[e2E2] "B7"{fe}[^d^D]B \
| "Em"e2 B2 | "Am"c3 c | "Em"Be "B7"e^d | f2 "Em"e |]

%%sep 1 1 500

